Lila_HD/places/scalable/xubuntu_badge-symbolic.svg

<?xml version="1.0" encoding="UTF-8"?>
<!-- Created with Inkscape (http://www.inkscape.org/) -->
<svg version="1.1" viewBox="0 0 16 16" xmlns="http://www.w3.org/2000/svg" xmlns:cc="http://creativecommons.org/ns#" xmlns:dc="http://purl.org/dc/elements/1.1/" xmlns:rdf="http://www.w3.org/1999/02/22-rdf-syntax-ns#">
<metadata>
<rdf:RDF>
<cc:Work rdf:about="">
<dc:format>image/svg+xml</dc:format>
<dc:type rdf:resource="http://purl.org/dc/dcmitype/StillImage"/>
<dc:title/>
</cc:Work>
</rdf:RDF>
</metadata>
<g transform="translate(-433.99 -535.26)">
<path transform="translate(433.99 535.26)" d="m8 0c-4.4183 0-8 3.5817-8 8 0 4.4183 3.5817 8 8 8 4.4183 0 8-3.5817 8-8 0-4.4183-3.5817-8-8-8zm2.2812 2.9062c0.015-2e-3 0.0545 7e-4 0.0625 0 0.13578-0.00801 0.1947 0.0584 0.25 0.125 0.05545 0.0669 0.1097 0.1585 0.125 0.25a0.16546 0.16547 0 0 1 0 0.03125c0.06699 1.0296-0.1265 2.0515-0.375 3.0312v0.03125c-0.02289 0.14292-0.09913 0.2917-0.21875 0.375-0.06691 0.0465-0.151 0.0826-0.25 0.0625-0.09898-0.02038-0.16635-0.0959-0.21875-0.1875a0.16546 0.16547 0 0 1-0.03125-0.03125c-0.18986-0.64895 0.03625-1.3106 0.09375-1.875 0.12028-0.50844 0.12253-1.157 0.4375-1.6875 0.0189-0.0306 0.04725-0.06685 0.09375-0.09375 0.0233-0.0132 0.01625-0.02925 0.03125-0.03125zm2.4062 0.59375h0.03125c0.12857-0.01599 0.29425 0.05457 0.34375 0.15625 0.0495 0.10138 0.0415 0.21213 0 0.3125-0.41169 1.0498-0.92039 2.1372-1.5938 3.0625-0.09433 0.15067-0.28588 0.2202-0.4375 0.1875-0.16109-0.03491-0.28125-0.17493-0.28125-0.375 0.05033-0.81616 0.55062-1.4947 0.90625-2.125 0.28405-0.36903 0.49069-0.97686 1.0312-1.2188zm-6.3125 0.34375c0.0349 7e-4 0.06245 0.02725 0.09375 0.03125 0.20785 0.01453 0.37906 0.07657 0.5 0.21875 0.20348 0.23899 0.28125 0.59893 0.34375 0.96875 0.0619 0.36829 0.08575 0.7633 0.09375 1.0625v0.375c-7e-5 0.0088 0 0.02425 0 0.03125 0 0.0167-8e-3 0.01675 0 0.03125 0.0087 0.0152 0.0479 0.02225 0.0625 0.03125 0.0117 0.0073-0.0123 0.03025 0 0.03125 0.0228 0.0073 0.0828-7e-3 0.125 0 0.14255 0.0261 0.35114 0.0247 0.59375 0.0625 0.48536 0.07549 1.127 0.23417 1.7812 0.40625 0.6546 0.17214 1.3173 0.40811 1.8438 0.75 0.52449 0.34066 0.9185 0.78161 1 1.375 0.05149 0.36808-0.24116 0.75644-0.625 1.0938-0.38319 0.3368-0.89708 0.64063-1.4375 0.9375-0.5402 0.29666-1.0837 0.57157-1.5312 0.78125-0.22378 0.10487-0.41058 0.1772-0.5625 0.25-0.77328 0.31193-1.6744 0.56491-2.5938 0.75-0.03636 0-0.11765 0.02825-0.15625 0.03125-4.6812 0.40568-2.5-5.375-2.5-5.375 2.7e-4 0 0.10895-0.27379 0.15625-0.4375 0.0094-0.03709 0.03125-0.1493 0.03125-0.1875-0.0065-0.03855-0.01165-0.1105-0.03125-0.1875-0.04574-0.18269-0.11045-0.41768-0.15625-0.6875-0.045-0.2704-0.09305-0.54312-0.03125-0.8125 0.06153-0.26531 0.22001-0.53216 0.5-0.6875 0.10836-0.0543 0.23895-0.0887 0.34375-0.0625 0.10857 0.0269 0.2212 0.1073 0.3125 0.1875 0.18261 0.16058 0.32875 0.39966 0.46875 0.65625 0.13949 0.25556 0.2775 0.52811 0.375 0.75 0.04885 0.11142 0.0894 0.20545 0.125 0.28125 0.016 0.0334 0.02105 0.07485 0.03125 0.09375 9e-3 0.0182 0 0.03725 0 0.03125 0.0095 0.0152 0.01665-9e-3 0.03125 0-0.0094-0.0072 0.06245 0.02425 0.09375 0.03125 0.04585 0.0117 0.04935 0.03425 0.09375 0.03125 0.0225 0 0.07565-0.01745 0.09375-0.03125 8e-3 0-8e-3 -0.02725 0-0.03125 0.0141-0.0175 0-0.00945 0-0.03125v-0.0625c-0.01886-0.06618-0.0704-0.1444-0.125-0.34375-0.06345-0.2304-0.11555-0.51992-0.15625-0.8125-0.0407-0.29317-0.0611-0.58622 0-0.84375 0.06-0.25171 0.21742-0.4671 0.46875-0.5625 0.07106-0.0276 0.15185-0.08135 0.21875-0.09375 0.0338-0.0061 0.0901-0.03196 0.125-0.03125z" fill="#bebebe"/>
</g>
</svg>

<?xml version="1.0" encoding="UTF-8" standalone="no"?>
<!-- Created with Inkscape (http://www.inkscape.org/) -->

<svg
   xmlns:dc="http://purl.org/dc/elements/1.1/"
   xmlns:cc="http://creativecommons.org/ns#"
   xmlns:rdf="http://www.w3.org/1999/02/22-rdf-syntax-ns#"
   xmlns:svg="http://www.w3.org/2000/svg"
   xmlns="http://www.w3.org/2000/svg"
   xmlns:sodipodi="http://sodipodi.sourceforge.net/DTD/sodipodi-0.dtd"
   xmlns:inkscape="http://www.inkscape.org/namespaces/inkscape"
   width="16"
   height="16"
   id="svg3564"
   version="1.1"
   inkscape:version="0.48.4 r9939"
   sodipodi:docname="distributor-logo.svg">
  <defs
     id="defs3566" />
  <sodipodi:namedview
     id="base"
     pagecolor="#ffffff"
     bordercolor="#666666"
     borderopacity="1.0"
     inkscape:pageopacity="0.0"
     inkscape:pageshadow="2"
     inkscape:zoom="11.313708"
     inkscape:cx="6.9152402"
     inkscape:cy="18.947688"
     inkscape:document-units="px"
     inkscape:current-layer="layer1"
     showgrid="false"
     fit-margin-top="0"
     fit-margin-left="0"
     fit-margin-right="0"
     fit-margin-bottom="0"
     inkscape:window-width="1117"
     inkscape:window-height="766"
     inkscape:window-x="1473"
     inkscape:window-y="135"
     inkscape:window-maximized="0" />
  <metadata
     id="metadata3569">
    <rdf:RDF>
      <cc:Work
         rdf:about="">
        <dc:format>image/svg+xml</dc:format>
        <dc:type
           rdf:resource="http://purl.org/dc/dcmitype/StillImage" />
        <dc:title></dc:title>
      </cc:Work>
    </rdf:RDF>
  </metadata>
  <g
     inkscape:label="Layer 1"
     inkscape:groupmode="layer"
     id="layer1"
     transform="translate(-433.98737,-535.26317)">
    <path
       style="fill:#bebebe;fill-opacity:1;stroke:none"
       d="M 8 0 C 3.5817221 0 0 3.5817221 0 8 C 0 12.418278 3.5817221 16 8 16 C 12.418278 16 16 12.418278 16 8 C 16 3.5817221 12.418278 0 8 0 z M 10.28125 2.90625 C 10.29625 2.90425 10.33575 2.90695 10.34375 2.90625 C 10.47953 2.89824 10.53845 2.96465 10.59375 3.03125 C 10.6492 3.09815 10.70345 3.18975 10.71875 3.28125 A 0.1654576 0.16546502 0 0 1 10.71875 3.3125 C 10.78574 4.34211 10.59225 5.36396 10.34375 6.34375 L 10.34375 6.375 C 10.32086 6.51792 10.24462 6.6667 10.125 6.75 C 10.05809 6.7965 9.974 6.8326 9.875 6.8125 C 9.77602 6.79212 9.70865 6.7166 9.65625 6.625 A 0.1654576 0.16546502 0 0 1 9.625 6.59375 C 9.43514 5.9448 9.66125 5.28319 9.71875 4.71875 C 9.83903 4.21031 9.84128 3.5618 10.15625 3.03125 C 10.17515 3.00065 10.2035 2.9644 10.25 2.9375 C 10.2733 2.9243 10.26625 2.90825 10.28125 2.90625 z M 12.6875 3.5 L 12.71875 3.5 C 12.84732 3.48401 13.013 3.55457 13.0625 3.65625 C 13.112 3.75763 13.104 3.86838 13.0625 3.96875 C 12.65081 5.01858 12.14211 6.106 11.46875 7.03125 C 11.37442 7.18192 11.18287 7.25145 11.03125 7.21875 C 10.87016 7.18384 10.75 7.04382 10.75 6.84375 C 10.80033 6.02759 11.30062 5.34901 11.65625 4.71875 C 11.9403 4.34972 12.14694 3.74189 12.6875 3.5 z M 6.375 3.84375 C 6.4099 3.84445 6.43745 3.871 6.46875 3.875 C 6.6766 3.88953 6.84781 3.95157 6.96875 4.09375 C 7.17223 4.33274 7.25 4.69268 7.3125 5.0625 C 7.3744 5.43079 7.39825 5.8258 7.40625 6.125 L 7.40625 6.5 C 7.40618 6.5088 7.40625 6.52425 7.40625 6.53125 C 7.40625 6.54795 7.39825 6.548 7.40625 6.5625 C 7.41495 6.5777 7.45415 6.58475 7.46875 6.59375 C 7.48045 6.60105 7.45645 6.624 7.46875 6.625 C 7.49155 6.6323 7.55155 6.618 7.59375 6.625 C 7.7363 6.6511 7.94489 6.6497 8.1875 6.6875 C 8.67286 6.76299 9.31445 6.92167 9.96875 7.09375 C 10.62335 7.26589 11.28605 7.50186 11.8125 7.84375 C 12.33699 8.18441 12.731 8.62536 12.8125 9.21875 C 12.86399 9.58683 12.57134 9.97519 12.1875 10.3125 C 11.80431 10.6493 11.29042 10.95313 10.75 11.25 C 10.2098 11.54666 9.66629 11.82157 9.21875 12.03125 C 8.99497 12.13612 8.80817 12.20845 8.65625 12.28125 C 7.88297 12.59318 6.98182 12.84616 6.0625 13.03125 C 6.02614 13.03125 5.94485 13.0595 5.90625 13.0625 C 1.22504 13.46818 3.40625 7.6875 3.40625 7.6875 C 3.40652 7.6875 3.5152 7.41371 3.5625 7.25 C 3.5719 7.21291 3.59375 7.1007 3.59375 7.0625 C 3.58725 7.02395 3.5821 6.952 3.5625 6.875 C 3.51676 6.69231 3.45205 6.45732 3.40625 6.1875 C 3.36125 5.9171 3.3132 5.64438 3.375 5.375 C 3.43653 5.10969 3.59501 4.84284 3.875 4.6875 C 3.98336 4.6332 4.11395 4.5988 4.21875 4.625 C 4.32732 4.6519 4.43995 4.7323 4.53125 4.8125 C 4.71386 4.97308 4.86 5.21216 5 5.46875 C 5.13949 5.72431 5.2775 5.99686 5.375 6.21875 C 5.42385 6.33017 5.4644 6.4242 5.5 6.5 C 5.516 6.5334 5.52105 6.57485 5.53125 6.59375 C 5.54025 6.61195 5.53125 6.631 5.53125 6.625 C 5.54075 6.6402 5.5479 6.616 5.5625 6.625 C 5.5531 6.6178 5.62495 6.64925 5.65625 6.65625 C 5.7021 6.66795 5.7056 6.6905 5.75 6.6875 C 5.7725 6.6875 5.82565 6.67005 5.84375 6.65625 C 5.85175 6.65625 5.83575 6.629 5.84375 6.625 C 5.85785 6.6075 5.84375 6.61555 5.84375 6.59375 L 5.84375 6.53125 C 5.82489 6.46507 5.77335 6.38685 5.71875 6.1875 C 5.6553 5.9571 5.6032 5.66758 5.5625 5.375 C 5.5218 5.08183 5.5014 4.78878 5.5625 4.53125 C 5.6225 4.27954 5.77992 4.06415 6.03125 3.96875 C 6.10231 3.94115 6.1831 3.8874 6.25 3.875 C 6.2838 3.8689 6.3401 3.84304 6.375 3.84375 z "
       transform="translate(433.98737,535.26317)"
       id="path3394" />
  </g>
</svg>
